!!!COM:	Josquin des Pres
**kern	**kern
*part2	*part1
*staff2	*staff1
*clefGv2	*clefG2
*k[]	*k[]
*M2/1	*M2/1
=1-	=1-
2.E	0r
4F	.
2G	.
2A	.
=2	=2
2E	0r
2A	.
2G	.
[2c	.
=3	=3
2c]	2.e
4B	.
4A	4f
2B	2g
2A	2a
=4	=4
2.c	2e
.	2a
4d	.
[1e	2g
.	[2cc
=5	=5
0e_	2cc]
.	4b
.	4a
.	2cc
.	[2b
=6	=6
1e]	4b]
.	4a
.	2cc
[1e	2b
.	[2cc
=7	=7
2e]	2cc]
2d	4b
.	4a
1e	1g
=8	=8
1.f	1a
.	1d
4e	.
4d	.
=9	=9
1f	2r
.	2a
1e	2b
.	[2cc
=10	=10
1.f	2cc]
.	4b
.	4a
.	1dd
4e	.
4d	.
=11	=11
2f	1.cc
2e	.
2f	.
2g	2b
=12	=12
2e	2cc
2f	2.dd
2d	.
.	4cc
[2e	4b
.	4a
=13	=13
2e]	2.g
2.e	.
.	4a
.	2b
4d	.
2e	2cc
=14	=14
2f	2a
2d	1b
1e	.
.	[2e
=15	=15
1E	2e]
.	2.b
2.e	.
.	4a
.	2b
4d	.
=16	=16
2e	2cc
2f	2a
2d	1b
[2e	.
=17	=17
2e]	1e
1E	.
.	[1g
[2e	.
=18	=18
2e]	2g]
2f	2a
2d	1b
[2e	.
=19	=19
2e]	2cc
2f	2.dd
2d	.
.	4cc
[2e	4b
.	4a
=20	=20
2e]	2.g
1E	.
.	4a
.	2b
[2e	2e
=21	=21
2e]	2g
2f	2a
2d	2b
[2e	[2cc
=22	=22
2e]	4cc]
.	4b
2c	1a
1B	.
.	2g
=23	=23
[0A	1a
.	2r
.	2e
=24	=24
0A]	2f
.	2e
.	1a
=25	=25
1r	1.g
1e	.
.	4f
.	4e
=26	=26
2f	2d
2e	2c
1a	1f
=27	=27
1.g	1e
.	1g
4f	.
4e	.
=28	=28
2d	2f
2c	1e
1f	.
.	2d
=29	=29
2e	2e
2A	4c
.	4d
2.c	4e
.	4f
.	2g
4B	.
=30	=30
2A	2f
2G	1e
1F	.
.	2d
=31	=31
0E	1e
.	2r
.	2e
=32	=32
2r	2e
2e	2.g
2e	.
.	4f
[2g	4e
.	4d
=33	=33
4g]	2e
4f	.
4e	2c
4d	.
2e	1g
2c	.
=34	=34
1g	2r
.	2e
2r	2e
2e	[2g
=35	=35
2e	4g]
.	4f
2.g	4e
.	4d
.	2e
4f	.
4e	2c
4d	.
=36	=36
2e	1.g
2c	.
[1g	.
.	2a
=37	=37
2g]	2b
2e	2cc
2f	2dd
2g	2b
=38	=38
2e	2cc
2f	2.dd
2.g	.
.	4g
.	[2g
4c	.
=39	=39
1c	2g]
.	2cc
2f	2a
2d	[2b
=40	=40
2.e	4b]
.	4g
.	1g
4c	.
1c	.
.	2cc
=41	=41
2f	2a
2d	2.b
2.e	.
.	4g
.	[2g
4c	.
=42	=42
2c	2g]
2f	2a
2d	2f
[2e	[2g
=43	=43
4e]	4g]
4d	4f
1c	2e
.	1d
2B	.
=44	=44
0c	2r
.	2g
.	2a
.	2g
=45	=45
2r	1cc
2c	.
2d	2b
2c	[2cc
=46	=46
1f	4cc]
.	4b
.	2a
2e	2g
[2f	[2a
=47	=47
4f]	4a]
4e	4g
2d	2f
2c	2e
[2d	2f
=48	=48
4d]	2d
4c	.
2B	2dd
2A	2cc
2B	[2dd
=49	=49
2G	4dd]
.	4cc
2g	2b
2f	2a
[2g	2b
=50	=50
4g]	2g
4f	.
2e	2cc
2d	2b
2e	[2cc
=51	=51
2c	4cc]
.	4b
2f	2a
2e	2g
[2f	[2a
=52	=52
4f]	4a]
4e	4g
1d	2f
.	1e
2c	.
=53	=53
1d	3.d
.	6e
.	3f
1r	3g
.	3a
.	3f
=54	=54
3.G	1g
6A	.
3B	.
3c	1r
3d	.
3B	.
=55	=55
1c	3.g
.	6a
.	3b
1r	3cc
.	3dd
.	3b
=56	=56
3.c	1cc
6d	.
3e	.
3f	1r
3g	.
3e	.
=57	=57
1.f	3.a
.	6b
.	3cc
.	3dd
.	3ee
2e	.
.	3cc
=58	=58
2f	2.dd
2d	.
.	4cc
2f	2a
[2e	2cc
=59	=59
2e]	2b
2c	1a
2d	.
2e	2g
=60	=60
2f	2.dd
2d	.
.	4cc
2.f	2a
.	2cc
4e	.
=61	=61
2d	2b
2c	1a
1B	.
.	2g
=62	=62
1A	2.a
.	4g
2r	2e
2E	2g
=63	=63
2F	2f
2G	1e
2A	.
2B	2d
=64	=64
2c	2.a
2d	.
.	4g
2e	2e
2E	2g
=65	=65
2F	2f
2G	1e
2A	.
2B	2d
=66	=66
2c	2e
2d	2f
2e	2g
[2f	2a
=67	=67
4f]	2b
4e	.
1e	1cc
2d	4b
.	4a
=68	=68
0e	1g
.	1c
=69	=69
2r	[0g
2.e	.
4d	.
2B	.
=70	=70
2c	0g_
2B	.
1e	.
=71	=71
0E	0g]
==	==
*-	*-
